libs/ui/packages/crypto-icons/src/svg/DOGE.svg

<svg width="24" height="24" viewBox="0 0 24 24" fill="none">
<path fill-rule="evenodd" clip-rule="evenodd" d="M9.56088 10.9575H12.7964V12.672H9.56088V16.2855H11.6016C12.4094 16.2855 13.0701 16.1768 13.5846 15.9578C14.0991 15.7395 14.5026 15.4372 14.7959 15.0502C15.0958 14.6478 15.3 14.1822 15.3929 13.689C15.5012 13.1326 15.554 12.5668 15.5504 12C15.554 11.4332 15.5012 10.8674 15.3929 10.311C15.3001 9.81772 15.0959 9.35214 14.7959 8.94975C14.5026 8.56275 14.0984 8.2605 13.5846 8.04225C13.0701 7.82325 12.4094 7.7145 11.6016 7.7145H9.56088V10.9583V10.9575ZM7.48638 12.672H6.37488V10.9583H7.48638V6H12.3981C13.3056 6 14.0909 6.1575 14.7546 6.47025C15.4184 6.7845 15.9599 7.21275 16.3806 7.7565C16.8006 8.2995 17.1134 8.9355 17.3181 9.66375C17.5229 10.392 17.6249 11.1712 17.6249 12C17.63 12.7892 17.5266 13.5753 17.3174 14.3363C17.1134 15.0638 16.8006 15.7005 16.3799 16.2435C15.9599 16.7873 15.4184 17.2155 14.7546 17.5297C14.0909 17.8432 13.3049 18 12.3981 18H7.48638V12.672Z" fill="#C3A634"/>
</svg>

<svg width="24" height="24" viewBox="0 0 24 24" fill="none"><path fill="#c3a634" fill-rule="evenodd" d="M9.56 10.958h3.236v1.714H9.561v3.613h2.04q1.213 0 1.984-.327t1.21-.908a3.3 3.3 0 0 0 .598-1.361A8.6 8.6 0 0 0 15.55 12a8.6 8.6 0 0 0-.157-1.689 3.3 3.3 0 0 0-.597-1.361q-.44-.58-1.211-.908-.773-.328-1.983-.327H9.56zm-2.074 1.714H6.375v-1.714h1.111V6h4.912q1.361 0 2.357.47a4.4 4.4 0 0 1 1.626 1.287q.63.814.937 1.907T17.625 12a8.6 8.6 0 0 1-.308 2.336 5.5 5.5 0 0 1-.937 1.908q-.63.814-1.625 1.286-.996.47-2.357.47H7.486z" clip-rule="evenodd"/></svg>
